X: 9075
T: Da Kirk Stack
R: reel
M: 4/4
K: Emajor
fe|dBBB BAGF|E2B,E GEFG|A2GA c2Bc|fgaf dBfe|
dBBB BAGF|E2B,E GEFG|A2fe dBcd|e2g2 e2fe|
dBBB BAGF|E2B,E GEFG|A2GA c2Bc|fgaf dBcd|
e2gf ebge|fgaf c2fe|dBBB BcdB|e2g2 e2|ed|
e2gf ebge|fgaf c2fe|dBBB BcdB|efge b2 (3Bcd|
e2gf ebge|fgaf c2fe|dBBB BcdB|e2g2 e2||

